X:1
T:Good Fish Chowder
M:2/4
L:1/4
K:G
 G- G/2G/2 F/2D/2 D| G- G/2G/2 F A| G G F D/2D/2| E E D2| E/2 E/2- E D B,|\
 E E D B,| D G G- G/2G/2| F/2 A/2- A G2| B B B- B/2G/2| F/2 A/2- A G2|\
 G G F/2 D/2- D| G G F/2 A/2- A| G- G/2G/2 F- F/2D/2| E E D2| E- E/2E/2 D B,/2B,/2|\
 E E/2E/2 D/2 [G/2B,/2] [GB,]| z G/2 [G/2D/2] G-| G/2G/2 D A G2| B- B/2B/2 B- B/2G/2|\
